!!!COM: Palestrina, Giovanni Perluigi da
!!!OPR: Missa In te Domine speravi (1599)
!!!OMD: Kyrie
!!!OTL: Christe
**kern	**kern	**kern	**kern
*Itenor	*Icant	*Icant	*Icant
!Tenor	!Cantus 3	!Cantus 2	!Cantus 1
*clefGv2	*clefG2	*clefG2	*clefG2
*k[]	*k[]	*k[]	*k[]
*C:ion	*C:ion	*C:ion	*C:ion
*M4/2	*M4/2	*M4/2	*M4/2
=29	=29	=29	=29
1.f	0r	0r	1r
.	.	.	[1cc
2f	.	.	.
=30	=30	=30	=30
2e	0r	0r	2cc]
2f	.	.	2cc
2d	.	.	2b
2e	.	.	2cc
=31	=31	=31	=31
2f	1r	0r	2a
4e	.	.	2b
4d	.	.	.
2c	2r	.	2.cc
4A	[2cc	.	.
4B	.	.	4dd
=32	=32	=32	=32
4c	2cc]	0r	4ee
4d	.	.	4ff
4e	2cc	.	1gg
4f	.	.	.
2g	2b	.	.
2c	2cc	.	2ee
=33	=33	=33	=33
2d	2a	1r	1ff
2d	2b	.	.
[1c	2.cc	2r	2.ee
.	.	[2cc	.
.	4dd	.	4ff
=34	=34	=34	=34
1c]	4ee	2cc]	2gg
.	4ff	.	.
.	2.gg	2cc	2ee
1r	.	2b	1gg
.	4ff	.	.
.	[2ee	2cc	.
=35	=35	=35	=35
0r	2ee]	2a	1ff
.	2dd	2b	.
.	2ee	2cc	1ee
.	[2cc	[2ee	.
=36	=36	=36	=36
1.g	2cc]	2ee]	0r
.	4b	4dd	.
.	4a	4cc	.
.	1b	[1dd	.
2g	.	.	.
=37	=37	=37	=37
2f#	2a	1dd]	0r
2g	2b	.	.
2e	2cc	2r	.
2f#	2a	[2dd	.
=38	=38	=38	=38
2.g	2.b	2dd]	2r
.	.	2dd	2gg
4f	4a	.	.
2e	2g	2cc	2gg
2d	2a	2dd	2ff#
=39	=39	=39	=39
1e	1g	2b	2gg
.	.	2cc	2ee
1d	1r	4dd	4ff
.	.	4cc	4ee
.	.	4b	4dd
.	.	4a	4cc
=40	=40	=40	=40
2.e	1r	2g	2b
.	.	1cc	2ee
4f	.	.	.
1g	2r	.	1dd
.	2g	2b	.
=41	=41	=41	=41
2f	2a	1cc	1r
2a	1cc	.	.
1g	.	1dd	2r
.	2b	.	2dd
=42	=42	=42	=42
2c	2a	0r	2ee
2e	2g	.	1gg
1d	2.a	.	.
.	.	.	2ff
.	4b	.	.
=43	=43	=43	=43
0r	2cc	2r	2ee
.	2b	2dd	2dd
.	2a	2ee	2cc
.	2g	[2gg	2b
=44	=44	=44	=44
0r	1.cc	2gg]	1a
.	.	2ff	.
.	.	2ee	1g
.	2b	2dd	.
=45	=45	=45	=45
1r	2a	2cc	0r
.	1g	2b	.
1d	.	1a	.
.	2f#	.	.
=46	=46	=46	=46
2e	1g	2g	2r
1g	.	2b	2g
.	1r	1a	2a
2f	.	.	[2cc
=47	=47	=47	=47
2e	2r	1r	2cc]
2d	2dd	.	2b
2c	2ee	2r	2a
2B	[2gg	2g	2g
=48	=48	=48	=48
1A	2gg]	2a	1cc
.	2ff	1cc	.
1G	2ee	.	2r
.	2dd	2b	2dd
=49	=49	=49	=49
0r	2cc	2a	2ee
.	2b	2.dd	2gg
.	1a	.	4ff
.	.	4cc	4ee
.	.	[2cc	4ee
.	.	.	8dd
.	.	.	8cc
=50	=50	=50	=50
1G	1g	2cc]	1dd
.	.	2b	.
2A	2r	1cc	1cc
[2c	2g	.	.
=51	=51	=51	=51
2c]	2a	2r	0r
2B	2b	2dd	.
1A	[1cc	2ee	.
.	.	2ff	.
=52	=52	=52	=52
1G	2cc]	2.gg	2r
.	2b	.	2dd
.	.	4ff	.
2c	2cc	2ee	2ee
2d	2a	2dd	2ff
=53	=53	=53	=53
2.e	1g	2cc	2.gg
.	.	2b	.
4d	.	.	4ff
2c	2r	2cc	2ee
2B	2dd	2g	[2dd
=54	=54	=54	=54
1A	2ee	1cc	4dd]
.	.	.	4cc
.	2ff	.	1cc
2G	2.gg	1dd	.
2G	.	.	2b
.	4ff	.	.
=55	=55	=55	=55
2A	2ee	2r	2cc
2B	2.dd	2dd	4b
.	.	.	4a
2c	.	2ee	2g
.	4cc	.	.
2A	[2cc	2ff	2cc
=56	=56	=56	=56
1G	2cc]	2gg	1dd
.	2b	2.gg	.
1c	1cc	.	2ee
.	.	4ff	.
.	.	4ee	[2gg
.	.	4dd	.
=57	=57	=57	=57
0c	0g	4ee	4gg]
.	.	4dd	4ff
.	.	4cc	4ee
.	.	4b	4dd
.	.	1cc	1ee
=58	=58	=58	=58
0G	0g	0b	0dd
==	==	==	==
*-	*-	*-	*-
!!!CDT: 1525/^1526/-1594/2/2
!!!OCY: Italia
!!!AGN: Mass (Parody)
!!!AST: renaissance, vocal
!!!ASW: Motet 1532 (Lupus Hellinck)
!!!PWK: Masses, Book 9
!!!RNB: Cadence finals: G,D
!!!YOR: Le Opere Complete, v. 25, p. 131
!!!YOO: Rome, Italy: Fratelli Scalera
!!!END: 1992//
!!!EED: John Miller
!!!YEC: Copyright 2000, John Miller
!!!YEN: United States of America
!!!YEM: Rights to all derivative electronic formats reserved.
!!!YEM: Refer to licensing agreement for further details.
!!!YEM: This file must be accompanied by the licensing agreement.
!!!YEM: A copy of the licensing agreement may be found at http://www.music-cog.ohio-state.edu/HumdrumDatabases/Palestrina/license.txt
!!!EMD: converted to Humdrum by Bret Aarden
